packages/icons/src/components/Icon/assets/default/audio.svg

<svg width="21" height="20" viewBox="0 0 21 20" fill="none" xmlns="http://www.w3.org/2000/svg">
<path d="M10.7019 2.25C11.1161 2.25 11.4518 2.58586 11.4519 3V17C11.4519 17.4142 11.1161 17.75 10.7019 17.75C10.2878 17.7498 9.9519 17.4141 9.9519 17V3C9.95199 2.58597 10.2879 2.25017 10.7019 2.25Z" fill="#727683"/>
<path d="M13.7107 4.75488C14.1248 4.75488 14.4606 5.09078 14.4607 5.50488V14.5225C14.4607 14.9367 14.1249 15.2725 13.7107 15.2725C13.2966 15.2723 12.9607 14.9366 12.9607 14.5225V5.50488C12.9608 5.09088 13.2967 4.75505 13.7107 4.75488Z" fill="#727683"/>
<path d="M4.68433 5.25098C5.09854 5.25098 5.43433 5.58676 5.43433 6.00098V13.9971C5.43415 14.4111 5.09843 14.7471 4.68433 14.7471C4.27037 14.7469 3.9345 14.411 3.93433 13.9971V6.00098C3.93433 5.58687 4.27026 5.25115 4.68433 5.25098Z" fill="#727683"/>
<path d="M7.69312 7.25C8.10733 7.25 8.44312 7.58579 8.44312 8V11.998C8.44294 12.4121 8.10722 12.748 7.69312 12.748C7.27916 12.7479 6.94329 12.412 6.94312 11.998V8C6.94312 7.58589 7.27905 7.25017 7.69312 7.25Z" fill="#727683"/>
<path d="M16.7195 7.25C17.1337 7.25 17.4695 7.58579 17.4695 8V11.998C17.4693 12.4121 17.1336 12.748 16.7195 12.748C16.3056 12.7478 15.9697 12.412 15.9695 11.998V8C15.9695 7.58594 16.3055 7.25025 16.7195 7.25Z" fill="#727683"/>
</svg>

<svg xmlns="http://www.w3.org/2000/svg" width="21" height="20" fill="none" viewBox="0 0 21 20">
    <path fill="#727683" d="M10.702 2.25a.75.75 0 0 1 .75.75v14a.75.75 0 0 1-1.5 0V3a.75.75 0 0 1 .75-.75m3.008 2.505a.75.75 0 0 1 .75.75v9.018a.75.75 0 0 1-1.5 0V5.505a.75.75 0 0 1 .75-.75m-9.026.496a.75.75 0 0 1 .75.75v7.996a.75.75 0 0 1-1.5 0V6.001a.75.75 0 0 1 .75-.75M7.693 7.25a.75.75 0 0 1 .75.75v3.998a.75.75 0 0 1-1.5 0V8a.75.75 0 0 1 .75-.75m9.027 0a.75.75 0 0 1 .75.75v3.998a.75.75 0 0 1-1.5 0V8a.75.75 0 0 1 .75-.75"/>
</svg>
